X:1
T:Mizpah
T:Mizpah
T:Joseph Lincoln Hall
T:Ellice Lacie, 1896
T:Public Domain Courtesy of the Cyber Hymnal™
C:Joseph Lincoln Hall
Z:Public Domain
Z:Courtesy of the Cyber Hymnal™
%%score ( 1 2 ) ( 3 4 )
L:1/8
Q:1/4=105
M:4/4
K:Eb
V:1 treble 
V:2 treble 
V:3 bass 
V:4 bass 
V:1
"^Duet -Tenor and Alto" G2 | G3 G ^FGAG | E6 E2 | D3 E F2 A2 | G6 G2 | G3 G ^FGAG | E6 E2 | %7
w: 1.~Yes,|brief our part- ing words shall|be, And|few our part- ing|tears; The|Lord shall watch ’twixt me and|thee Thro’|
w: 2.~We|will not fear that time or|change Our|per- fect trust can|dim, No|sha- dow of a wrong es-|trange The|
w: 3.~Be-|lov- èd, when we reach a-|part, The|val- ley lone and|dread, Which,|side by side and heart to|heart, We|
 D3 B =A2 c2 | B6 z2 |"^Tenor Solo" z8 | z6"^Quartet" B2 | [Ec]3 [EF] [EF]2 [Ec]2 | (c4 B2) [DB]2 | %13
w: all the com- ing|years;||Wher-|ev- er we may|roam, * Like|
w: hearts that rest in|Him.||For|one faint hour be|cold, * The|
w: once had thought to|tread,||Thro’|all the ways shall|be * The|
 [Ee]3 [EB] [EA][EG][B,F][B,E] | [=A,E]6!p! [A,E]2"^riten." | [B,E]3 [EB] [DB]2 [DB]2 | [EB]6 |] %17
w: bea- con fires that burn at|night To|lure the wan- derer|home.|
w: Lord shall watch be- tween us|yet, His|love our love shall|hold.|
w: com- fort of His grace, a|sign Still|be- tween me and|thee.|
V:2
 x2 | x8 | x8 | x8 | x8 | x8 | x8 | x8 | x8 | x8 | x6 B2 | x8 | D6 x2 | x8 | x8 | x8 | x6 |] %17
V:3
 [E,B,]2 | B,3 B, =A,B,CB, | G,6 G,2 | F,3 G, A,2 C2 | [E,B,]6 [E,B,]2 | B,3 B, =A,B,CB, | %6
w: ~|~ ~ ~ ~ ~ ~|~ ~|~ ~ ~ ~|~ ~|~ ~ ~ ~ ~ ~|
w: ~|~ ~ ~ ~ ~ ~|~ ~|~ ~ ~ ~|~ ~|~ ~ ~ ~ ~ ~|
w: ~|~ ~ ~ ~ ~ ~|~ ~|~ ~ ~ ~|~ ~|~ ~ ~ ~ ~ ~|
 G,6 G,2 | F,3 D C2 E2 | [B,,D]6 B,2 | D3 C B,=B,DC | =A,4 B,2 B,2 | %11
w: ~ ~|~ ~ ~ ~|~ ~|His eyes shall our guid- ing|light * *|
w: ~ ~|~ ~ ~ ~|~ ~|But should they for one hour|for- get *|
w: ~ ~|~ ~ ~ ~|~ ~|His faith- ful rod, thy staff|and mine, *|
 [F,=A,]3 [F,A,] [F,A,]2 [F,A,]2 | [B,,A,]6 [B,,A,]2 | [E,G,]3 [E,G,] [E,C][E,B,][E,A,][E,G,] | %14
w: |||
w: |||
w: |||
 [_C,_G,]6 [C,G,]2 | [B,,G,]3 [B,,G,] [B,,F,]2 [B,,A,]2 | [E,G,]6 |] %17
w: |||
w: |||
w: |||
V:4
 x2 | E,8 | E,8 | B,,8 | x8 | E,8 | E,8 | F,8 | x8 | x8 | x6 B,2 | x8 | x8 | x8 | x8 | x8 | x6 |] %17

